X:53
T:The New Town of Edinburgh
R:Reel
D:Irish Dancing Tape (P. Acc)
Z:Adrian Scahill irtrad-l 2001-05-15
M:4/4
L:1/8
K:D
A2 | "D"d2cd BdAG | "A7"FGAG "D"FDFA | "D"d2cd BdAd | "G"GdFd "A7"E3c || "D"d2cd BdAG |
| "A7"FGAG "D"FEDC | "G"B,DEF "A7"GABc | "D"dDDC D2 |[| AG | "D"F2^EF "A7"=EFDE | "D"FDFA dAFD |
| "G"G2 FG ^EF=EF | GFGA "A7"B2AG || "D"F2^EF "A7"=EFDE | "D"FDFA dAFD | "A7"CDEF GABc | "D"dDDC D2 |]
